; generated by PrusaSlicer 2.5.1+win64 on 2023-03-26 at 01:01:07 UTC

; 

; external perimeters extrusion width = 0.60mm
; perimeters extrusion width = 0.50mm
; infill extrusion width = 0.50mm
; solid infill extrusion width = 0.50mm
; top infill extrusion width = 0.45mm
; first layer extrusion width = 0.42mm

; external perimeters extrusion width = 0.60mm
; perimeters extrusion width = 0.50mm
; infill extrusion width = 0.50mm
; solid infill extrusion width = 0.50mm
; top infill extrusion width = 0.45mm
; first layer extrusion width = 0.42mm

; external perimeters extrusion width = 0.60mm
; perimeters extrusion width = 0.50mm
; infill extrusion width = 0.50mm
; solid infill extrusion width = 0.50mm
; top infill extrusion width = 0.45mm
; first layer extrusion width = 0.42mm

; external perimeters extrusion width = 0.60mm
; perimeters extrusion width = 0.50mm
; infill extrusion width = 0.50mm
; solid infill extrusion width = 0.50mm
; top infill extrusion width = 0.45mm
; first layer extrusion width = 0.42mm

M73 P0 R131
M73 Q0 S133
M201 X1000 Y1000 Z200 E5000 ; sets maximum accelerations, mm/sec^2
M203 X200 Y200 Z12 E120 ; sets maximum feedrates, mm / sec
M204 P1250 R1250 T1250 ; sets acceleration (P, T) and retract acceleration (R), mm/sec^2
M205 X8.00 Y8.00 Z0.40 E4.50 ; sets the jerk limits, mm/sec
M205 S0 T0 ; sets the minimum extruding and travel feed rate, mm/sec
M107
;TYPE:Custom
M862.3 P "MK3S" ; printer model check
M862.1 P0.4 ; nozzle diameter check
M115 U3.11.0 ; tell printer latest fw version
G90 ; use absolute coordinates
M83 ; extruder relative mode
M104 S215 ; set extruder temp
M140 S60 ; set bed temp
M190 S60 ; wait for bed temp
M109 S215 ; wait for extruder temp
G28 W ; home all without mesh bed level
G80 ; mesh bed leveling
G1 Y-3.0 F1000.0 ; go outside print area
G92 E0.0
G1 X60.0 E9.0 F1000.0 ; intro line
G1 X100.0 E12.5 F1000.0 ; intro line
G92 E0.0
M221 S95

; Don't change E values below. Excessive value can damage the printer.

M907 E538 ; set extruder motor current
G21 ; set units to millimeters
G90 ; use absolute coordinates
M83 ; use relative distances for extrusion
M900 K0.05 ; Filament gcode LA 1.5
M900 K30 ; Filament gcode LA 1.0
M107
;LAYER_CHANGE
;Z:0.2
;HEIGHT:0.2
;BEFORE_LAYER_CHANGE
G92 E0.0
;0.2


G1 E-.8 F2100
G1 Z.4 F10800
;AFTER_LAYER_CHANGE
;0.2
G1 X61.704 Y79.72
G1 Z.2
G1 E.8 F2100
M204 S1000
;TYPE:Skirt/Brim
;WIDTH:0.42
G1 F1200
G1 X62.442 Y79.3 E.02665
G1 X139.106 Y50.283 E2.57017
G1 X139.948 Y50.129 E.02682
M73 Q0 S132
G1 X169.198 Y50.129 E.91711
G1 X170.505 Y50.52 E.04278
G1 X171.135 Y51.128 E.02747
G1 X193.173 Y82.128 E1.19255
G1 X193.612 Y83.506 E.04533
G1 X193.584 Y132.619 E1.53991
G1 X193.144 Y133.995 E.04529
G1 X171.107 Y164.995 E1.19255
G1 X170.03 Y165.833 E.04278
G1 X169.169 Y165.995 E.02747
G1 X139.919 Y165.995 E.91711
G1 X139.265 Y165.903 E.02072
G1 X58.306 Y142.717 E2.64044
G1 X57.602 Y142.468 E.02343
G1 X56.618 Y141.968 E.03461
G1 X55.668 Y140.989 E.04278
G1 X55.4 Y139.896 E.03528
G1 X55.427 Y115.536 E.76378
G1 X60.56 Y81.666 E1.07412
G1 X60.921 Y80.624 E.03457
G1 X61.16 Y80.264 E.01354
G1 X61.661 Y79.763 E.02224
; printing object R id:1 copy 0
;WIPE_START
G1 F8640
G1 X62.442 Y79.3 E-.20964
G1 X64.671 Y78.456 E-.55036
;WIPE_END
G1 E-.04 F2100
G1 Z.6 F10800
G1 X162.21 Y119.939
G1 Z.2
G1 E.8 F2100
;TYPE:Perimeter
;WIDTH:0.419999
G1 F1200
G1 X161.981 Y119.603 E.01276
G1 X161.694 Y119.42 E.01066
G1 X161.575 Y119.235 E.00691
G1 X161.29 Y118.962 E.01235
G1 X160.543 Y118.516 E.0273
G1 X159.874 Y118.253 E.02251
G1 X159.173 Y118.099 E.02251
G1 X158.561 Y118.053 E.01926
G1 X150.458 Y118.056 E.25406
G1 X149.775 Y118.121 E.02152
G1 X149.073 Y118.299 E.02271
G1 X148.41 Y118.585 E.02261
G1 X147.799 Y118.962 E.02253
G1 X147.598 Y119.128 E.00817
G1 X147.431 Y119.385 E.00961
G1 X147.242 Y119.499 E.00691
G1 X146.956 Y119.784 E.01266
G1 X146.465 Y120.577 E.02923
G1 X146.191 Y121.256 E.02296
;WIDTH:0.460854
G1 X146.129 Y121.419 E.00608
;WIDTH:0.501708
G1 X146.067 Y121.583 E.00667
;WIDTH:0.542562
G1 X146.005 Y121.747 E.00727
G1 X145.985 Y121.573 E.00727
;WIDTH:0.501708
G1 X145.964 Y121.399 E.00667
;WIDTH:0.460854
G1 X145.944 Y121.225 E.00608
;WIDTH:0.419999
G1 X145.92 Y119.238 E.06233
G1 X145.805 Y118.957 E.00952
G1 X145.541 Y118.676 E.01208
G1 X145.268 Y118.545 E.0095
G1 X144.635 Y118.359 E.02067
G1 X143.905 Y118 E.02551
G1 X143.476 Y117.738 E.01575
G1 X142.873 Y117.322 E.02297
G1 X142.052 Y116.683 E.03264
G1 X167.035 Y116.684 E.78334
G1 X166.21 Y117.327 E.03281
G1 X165.613 Y117.738 E.02272
G1 X165.182 Y118.003 E.01585
G1 X164.475 Y118.352 E.02475
G1 X163.821 Y118.545 E.02136
G1 X163.548 Y118.676 E.0095
G1 X163.348 Y118.865 E.00864
G1 X163.222 Y119.077 E.00772
G1 X163.145 Y119.449 E.01192
G1 X163.145 Y121.236 E.05601
;WIDTH:0.455958
G1 X163.127 Y121.434 E.00683
;WIDTH:0.491916
G1 X163.109 Y121.632 E.00743
;WIDTH:0.527874
G1 X163.091 Y121.83 E.00802
G1 X163.012 Y121.593 E.01009
;WIDTH:0.491916
G1 X162.932 Y121.355 E.00935
;WIDTH:0.455958
G1 X162.852 Y121.118 E.0086
;WIDTH:0.419999
G1 X162.549 Y120.434 E.02347
G1 X162.244 Y119.988 E.01693
;WIPE_START
G1 F8640
G1 X161.981 Y119.603 E-.10779
G1 X161.694 Y119.42 E-.07848
G1 X161.575 Y119.235 E-.05091
G1 X161.29 Y118.962 E-.09096
G1 X160.543 Y118.516 E-.20106
G1 X159.874 Y118.253 E-.16575
G1 X159.599 Y118.193 E-.06505
;WIPE_END
G1 E-.04 F2100
G1 Z.6 F10800
G1 X163.134 Y127.953
G1 Z.2
G1 E.8 F2100
;WIDTH:0.471354
G1 F1200
G1 X163.255 Y128.179 E.00912
;WIDTH:0.445677
G1 X163.376 Y128.404 E.00857
;WIDTH:0.419999
G1 X163.821 Y128.69 E.01658
G1 X164.454 Y128.876 E.02067
G1 X165.152 Y129.219 E.02438
G1 X165.601 Y129.489 E.01644
G1 X166.21 Y129.908 E.02315
G1 X166.787 Y130.345 E.02272
G1 X168.142 Y131.465 E.05513
G1 X168.44 Y131.632 E.0107
G1 X168.743 Y131.682 E.00962
G1 X174.799 Y131.682 E.18989
G1 X174.535 Y131.815 E.00928
G1 X172.004 Y134.241 E.10992
G1 X170.137 Y135.985 E.08012
G1 X168.895 Y137.106 E.05245
G1 X168.983 Y136.671 E.01394
G1 X168.995 Y136.365 E.0096
G1 X168.881 Y135.692 E.0214
G1 X168.686 Y135.238 E.01549
G1 X168.399 Y134.834 E.01553
G1 X168.022 Y134.465 E.01653
G1 X167.639 Y134.235 E.01402
G1 X167.359 Y134.124 E.00944
G1 X166.644 Y133.979 E.02287
G1 X166.06 Y133.953 E.01832
G1 X163.62 Y133.953 E.07652
G1 X163.109 Y134.124 E.0169
G1 X163.108 Y128.504 E.17619
;WIDTH:0.445677
G1 X163.121 Y128.229 E.00924
;WIDTH:0.471354
G1 X163.131 Y128.013 E.00769
;WIPE_START
G1 F8640
G1 X163.255 Y128.179 E-.04776
G1 X163.376 Y128.404 E-.05911
G1 X163.821 Y128.69 E-.12209
G1 X164.454 Y128.876 E-.15223
G1 X165.152 Y129.219 E-.17957
G1 X165.601 Y129.489 E-.12108
G1 X165.88 Y129.681 E-.07815
;WIPE_END
G1 E-.04 F2100
G1 Z.6 F10800
G1 X165.29 Y138.692
G1 Z.2
G1 E.8 F2100
;WIDTH:0.419999
G1 F1200
G1 X165.499 Y138.724 E.00663
G1 X165.763 Y139.019 E.01242
G1 X166.249 Y139.762 E.02785
G1 X165.918 Y139.986 E.01252
G1 X165.275 Y140.364 E.0234
G1 X165.29 Y140.339 E.00093
G1 X165.29 Y138.752 E.04976
G1 X165.72 Y139.604 F10800
;WIDTH:0.473018
G1 F1200
G1 X165.667 Y139.604 E.00192
G1 X165.64 Y139.65 E.00192
G1 X165.667 Y139.697 E.00192
G1 X165.72 Y139.697 E.00192
G1 X165.747 Y139.65 E.00192
;WIPE_START
G1 F8640
G1 X165.72 Y139.697 E-.01241
G1 X165.667 Y139.697 E-.01241
G1 X165.64 Y139.65 E-.01241
G1 X165.667 Y139.604 E-.01241
G1 X165.72 Y139.604 E-.01241
;WIPE_END
G1 E-.73793 F2100
G1 Z.6 F10800
G1 X160.78 Y139.351
G1 Z.2
G1 E.8 F2100
;TYPE:External perimeter
;WIDTH:0.42146
G1 F1200
G1 X160.628 Y139.428 E.00537
G1 X148.461 Y139.428 E.38297
G1 X148.297 Y139.333 E.00596
;WIDTH:0.420081
G1 X148.17 Y139.11 E.00804
;WIDTH:0.424331
G1 X148.154 Y138.95 E.0051
G1 X148.17 Y138.921 E.00105
;WIDTH:0.42146
G1 X154.381 Y128.273 E.388
;WIDTH:0.463815
G1 X154.435 Y128.221 E.00265
;WIDTH:0.506169
G1 X154.49 Y128.168 E.00291
;WIDTH:0.548523
G1 X154.544 Y128.116 E.00318
G1 X154.599 Y128.168 E.00318
;WIDTH:0.506169
G1 X154.653 Y128.221 E.00291
;WIDTH:0.463814
G1 X154.708 Y128.273 E.00265
;WIDTH:0.42146
G1 X160.919 Y138.921 E.388
G1 X160.919 Y139.11 E.00596
;WIDTH:0.420749
G1 X160.81 Y139.299 E.00684
;WIPE_START
G1 F8640
G1 X160.628 Y139.428 E-.05158
G1 X157.56 Y139.428 E-.70842
;WIPE_END
G1 E-.04 F2100
G1 Z.6 F10800
G1 X145.962 Y143.449
G1 Z.2
M73 P0 R130
G1 E.8 F2100
;TYPE:Perimeter
;WIDTH:0.456588
G1 F1200
G1 X145.715 Y142.834 E.02281
;WIDTH:0.419999
G1 X145.273 Y142.547 E.01652
G1 X144.647 Y142.358 E.02051
G1 X144.192 Y142.158 E.01559
G1 X143.333 Y141.644 E.03137
G1 X142.891 Y141.336 E.0169
G1 X141.716 Y140.418 E.04675
G1 X140.307 Y139.21 E.05819
G1 X138.343 Y137.422 E.08326
G1 X135.704 Y134.925 E.11394
G1 X132.497 Y131.819 E.13997
G1 X132.159 Y131.682 E.01146
G1 X140.346 Y131.682 E.25671
G1 X140.663 Y131.627 E.01009
G1 X140.947 Y131.465 E.01022
G1 X142.302 Y130.345 E.05513
G1 X142.879 Y129.908 E.02272
G1 X143.488 Y129.489 E.02315
G1 X143.931 Y129.219 E.01627
G1 X144.614 Y128.883 E.02389
G1 X145.268 Y128.69 E.02136
G1 X145.713 Y128.404 E.01658
;WIDTH:0.445574
G1 X145.834 Y128.179 E.00857
;WIDTH:0.471148
G1 X145.955 Y127.953 E.00912
G1 X145.968 Y128.229 E.00982
;WIDTH:0.445574
G1 X145.98 Y128.504 E.00924
;WIDTH:0.419999
G1 X145.98 Y138.397 E.31018
G1 X146.001 Y139.334 E.02938
G1 X146.16 Y139.691 E.01227
G1 X146.237 Y139.744 E.00294
G1 X146.16 Y139.798 E.00294
G1 X146.048 Y140 E.00723
G1 X145.98 Y140.351 E.01122
G1 X145.98 Y142.735 E.07476
;WIDTH:0.456588
G1 X145.964 Y143.389 E.0225
;WIPE_START
G1 F8640
G1 X145.715 Y142.834 E-.14049
G1 X145.273 Y142.547 E-.12168
G1 X144.647 Y142.358 E-.15104
G1 X144.192 Y142.158 E-.1148
G1 X143.333 Y141.644 E-.23104
G1 X143.33 Y141.642 E-.00094
;WIPE_END
G1 E-.04 F2100
G1 Z.6 F10800
G1 X145.955 Y152.953
G1 Z.2
G1 E.8 F2100
;WIDTH:0.471148
G1 F1200
G1 X145.968 Y153.227 E.00978
;WIDTH:0.445574
G1 X145.98 Y153.502 E.0092
;WIDTH:0.419999
G1 X145.98 Y156.615 E.09762
G1 X146.089 Y157.598 E.03099
G1 X146.296 Y158.277 E.02227
G1 X146.475 Y158.651 E.01301
G1 X146.804 Y159.228 E.02081
G1 X147.385 Y159.908 E.02804
G1 X148.088 Y160.461 E.02804
G1 X148.885 Y160.866 E.02804
G1 X149.745 Y161.109 E.02804
G1 X150.534 Y161.182 E.02482
G1 X153.175 Y161.176 E.08283
G1 X154.303 Y161.071 E.0355
G1 X154.544 Y161.011 E.00781
G1 X154.765 Y161.069 E.00715
G1 X155.364 Y161.141 E.01892
G1 X155.914 Y161.176 E.01725
G1 X158.648 Y161.177 E.08573
G1 X159.525 Y161.072 E.0277
G1 X160.375 Y160.796 E.02804
G1 X161.155 Y160.358 E.02804
G1 X161.835 Y159.777 E.02804
G1 X162.388 Y159.074 E.02804
G1 X162.793 Y158.277 E.02804
G1 X163.036 Y157.417 E.02804
G1 X163.109 Y156.628 E.02482
G1 X163.109 Y153.502 E.09803
;WIDTH:0.445575
G1 X163.121 Y153.227 E.0092
;WIDTH:0.47115
G1 X163.134 Y152.953 E.00978
G1 X163.255 Y153.178 E.00908
;WIDTH:0.445575
G1 X163.375 Y153.403 E.00854
;WIDTH:0.419999
G1 X163.818 Y153.689 E.01655
G1 X164.419 Y153.868 E.01965
G1 X164.876 Y154.068 E.01562
G1 X165.333 Y154.32 E.01638
G1 X166.311 Y154.982 E.03702
G1 X167.476 Y155.907 E.04666
G1 X167.476 Y162.453 E.20525
G1 X141.612 Y162.453 E.81095
G1 X141.612 Y155.907 E.20525
G1 X142.778 Y154.982 E.04666
G1 X143.704 Y154.355 E.03506
G1 X144.129 Y154.111 E.01536
G1 X144.6 Y153.889 E.01632
G1 X145.27 Y153.689 E.02195
G1 X145.714 Y153.403 E.01655
;WIDTH:0.445574
G1 X145.834 Y153.178 E.00854
;WIDTH:0.471148
G1 X145.926 Y153.006 E.00694
;WIPE_START
G1 F8640
G1 X145.968 Y153.227 E-.05203
G1 X145.98 Y153.502 E-.06344
G1 X145.98 Y156.293 E-.64453
;WIPE_END
G1 E-.04 F2100
G1 Z.6 F10800
G1 X154.314 Y158.464
G1 Z.2
G1 E.8 F2100
;WIDTH:0.379554
G1 F1200
G1 X154.774 Y158.465 E.01288
G1 X154.544 Y159.203 E.02163
G1 X154.332 Y158.522 E.01997
;WIPE_START
G1 F8640
G1 X154.774 Y158.465 E-.10295
G1 X154.544 Y159.203 E-.17841
G1 X154.332 Y158.522 E-.1647
;WIPE_END
G1 E-.35394 F2100
G1 Z.6 F10800
G1 X147.043 Y139.757
G1 Z.2
G1 E.8 F2100
;WIDTH:0.419999
G1 F1200
G1 X146.775 Y139.684 E.0087
G1 X146.465 Y139.47 E.01183
G1 X146.37 Y139.255 E.00736
G1 X146.357 Y129.841 E.29517
G1 X146.357 Y122.607 E.22684
G1 X146.416 Y121.938 E.02103
G1 X146.557 Y121.347 E.01906
G1 X146.812 Y120.723 E.02114
G1 X147.274 Y119.988 E.02721
G1 X147.445 Y119.817 E.0076
G1 X147.537 Y119.769 E.00324
G1 X147.818 Y119.82 E.00895
G1 X147.776 Y119.537 E.00895
G1 X147.924 Y119.336 E.00783
G1 X148.608 Y118.906 E.02534
G1 X149.216 Y118.648 E.0207
G1 X149.861 Y118.488 E.02084
G1 X150.487 Y118.432 E.0197
G1 X158.561 Y118.43 E.25314
G1 X159.143 Y118.475 E.01833
G1 X159.788 Y118.62 E.02071
G1 X160.399 Y118.865 E.02064
G1 X161.092 Y119.283 E.02539
G1 X161.263 Y119.447 E.00741
G1 X161.313 Y119.537 E.00324
G1 X161.271 Y119.82 E.00895
G1 X161.552 Y119.769 E.00895
G1 X161.724 Y119.879 E.00639
G1 X162.232 Y120.637 E.02861
G1 X162.505 Y121.264 E.02145
G1 X162.672 Y121.93 E.02153
G1 X162.731 Y122.596 E.02097
G1 X162.731 Y134.169 E.36285
G1 X162.718 Y134.896 E.0228
;WIDTH:0.392782
G1 X162.718 Y139.138 E.12341
;WIDTH:0.434887
G1 X162.678 Y139.284 E.00492
;WIDTH:0.47703
G1 X162.639 Y139.43 E.00545
;WIDTH:0.519173
G1 X162.599 Y139.575 E.00598
G1 X162.276 Y139.746 E.01447
G1 X162.494 Y139.83 E.00927
G1 X162.599 Y139.914 E.0053
G1 X162.639 Y140.098 E.00746
;WIDTH:0.478866
G1 X162.68 Y140.282 E.00683
;WIDTH:0.438559
G1 X162.721 Y140.465 E.0062
;WIDTH:0.419999
G1 X162.732 Y156.628 E.50677
G1 X162.66 Y157.38 E.02366
G1 X162.433 Y158.168 E.02573
G1 X162.055 Y158.897 E.02573
G1 X161.543 Y159.538 E.02573
G1 X160.916 Y160.067 E.02573
G1 X160.197 Y160.463 E.02573
G1 X159.415 Y160.712 E.02573
G1 X158.554 Y160.805 E.02716
G1 X155.914 Y160.799 E.08277
G1 X155.409 Y160.766 E.01587
G1 X154.81 Y160.695 E.01892
G1 X154.652 Y160.652 E.00511
G1 X154.544 Y160.503 E.00579
G1 X154.437 Y160.652 E.00579
G1 X154.266 Y160.696 E.00551
G1 X153.228 Y160.796 E.03272
G1 X150.534 Y160.805 E.08447
G1 X149.782 Y160.733 E.02366
G1 X148.994 Y160.505 E.02573
G1 X148.265 Y160.128 E.02573
G1 X147.624 Y159.616 E.02573
G1 X147.095 Y158.989 E.02573
G1 X146.808 Y158.474 E.0185
G1 X146.656 Y158.168 E.0107
G1 X146.45 Y157.488 E.02227
G1 X146.357 Y156.615 E.02752
G1 X146.357 Y140.351 E.50997
G1 X146.398 Y140.14 E.00673
G1 X146.465 Y140.019 E.00434
G1 X146.828 Y139.793 E.01341
G1 X146.984 Y139.767 E.00496
G1 X147.433 Y139.467 F10800
;TYPE:External perimeter
;WIDTH:0.537068
G1 F1200
G1 X147.313 Y139.493 E.00503
G1 X147.312 Y139.474 E.00081
;WIDTH:0.498045
G1 X147.311 Y139.454 E.00074
;WIDTH:0.459022
G1 X147.31 Y139.434 E.00068
;WIDTH:0.419999
G1 X146.874 Y139.32 E.01412
G1 X146.741 Y139.189 E.00585
G1 X146.734 Y129.841 E.29308
G1 X146.734 Y122.607 E.22684
G1 X146.791 Y121.973 E.01996
G1 X146.922 Y121.438 E.01725
G1 X147.16 Y120.869 E.01932
G1 X147.591 Y120.192 E.02519
G1 X147.679 Y120.119 E.00357
;WIDTH:0.421458
G1 X147.893 Y120.17 E.00694
G1 X154.114 Y127.407 E.30037
;WIDTH:0.456424
G1 X154.18 Y127.468 E.0031
;WIDTH:0.491389
G1 X154.247 Y127.529 E.00336
;WIDTH:0.526354
G1 X154.313 Y127.59 E.00362
;WIDTH:0.548523
G1 X154.313 Y127.761 E.00721
G1 X154.227 Y127.868 E.00578
;WIDTH:0.506169
G1 X154.14 Y127.976 E.0053
;WIDTH:0.463815
G1 X154.054 Y128.083 E.00481
;WIDTH:0.42146
G1 X147.548 Y139.234 E.40636
;WIDTH:0.459022
G1 X147.51 Y139.312 E.003
;WIDTH:0.498045
G1 X147.471 Y139.39 E.00328
;WIDTH:0.537068
G1 X147.459 Y139.414 E.0011
;WIPE_START
G1 F8640
G1 X147.313 Y139.493 E-.03842
G1 X147.312 Y139.474 E-.00454
G1 X147.311 Y139.454 E-.00454
G1 X147.31 Y139.434 E-.00454
G1 X146.874 Y139.32 E-.10401
G1 X146.741 Y139.189 E-.04311
G1 X146.74 Y136.76 E-.56086
;WIPE_END
G1 E-.04 F2100
G1 Z.6 F10800
G1 X154.544 Y127.278
G1 Z.2
G1 E.8 F2100
;WIDTH:0.526354
G1 F1200
G1 X154.497 Y127.239 E.00249
;WIDTH:0.491389
G1 X154.449 Y127.2 E.00231
;WIDTH:0.456424
G1 X154.401 Y127.16 E.00213
;WIDTH:0.421458
G1 X148.18 Y119.923 E.30037
G1 X148.121 Y119.689 E.00761
;WIDTH:0.419999
G1 X148.195 Y119.604 E.00351
G1 X148.806 Y119.227 E.02253
G1 X149.36 Y118.996 E.0188
G1 X149.948 Y118.855 E.01898
G1 X150.531 Y118.807 E.01835
G1 X158.561 Y118.807 E.25175
G1 X159.114 Y118.851 E.01739
G1 X159.701 Y118.987 E.0189
G1 X160.255 Y119.213 E.01878
G1 X160.894 Y119.604 E.02349
G1 X160.968 Y119.689 E.00351
;WIDTH:0.421457
G1 X160.909 Y119.923 E.00761
G1 X154.688 Y127.16 E.30036
;WIDTH:0.424325
G1 X154.665 Y127.184 E.00105
;WIDTH:0.458335
