; generated by PrusaSlicer 2.5.1+win64 on 2023-05-04 at 01:26:19 UTC

; 

; external perimeters extrusion width = 0.45mm
; perimeters extrusion width = 0.45mm
; infill extrusion width = 0.45mm
; solid infill extrusion width = 0.45mm
; top infill extrusion width = 0.40mm
; first layer extrusion width = 0.42mm

; external perimeters extrusion width = 0.45mm
; perimeters extrusion width = 0.45mm
; infill extrusion width = 0.45mm
; solid infill extrusion width = 0.45mm
; top infill extrusion width = 0.40mm
; first layer extrusion width = 0.42mm

; external perimeters extrusion width = 0.45mm
; perimeters extrusion width = 0.45mm
; infill extrusion width = 0.45mm
; solid infill extrusion width = 0.45mm
; top infill extrusion width = 0.40mm
; first layer extrusion width = 0.42mm

; external perimeters extrusion width = 0.45mm
; perimeters extrusion width = 0.45mm
; infill extrusion width = 0.45mm
; solid infill extrusion width = 0.45mm
; top infill extrusion width = 0.40mm
; first layer extrusion width = 0.42mm

M73 P0 R29
M73 Q0 S29
M201 X1000 Y1000 Z200 E5000 ; sets maximum accelerations, mm/sec^2
M203 X200 Y200 Z12 E120 ; sets maximum feedrates, mm / sec
M204 P1250 R1250 T1250 ; sets acceleration (P, T) and retract acceleration (R), mm/sec^2
M205 X8.00 Y8.00 Z0.40 E4.50 ; sets the jerk limits, mm/sec
M205 S0 T0 ; sets the minimum extruding and travel feed rate, mm/sec
M107
;TYPE:Custom
M862.3 P "MK3S" ; printer model check
M862.1 P0.4 ; nozzle diameter check
M115 U3.11.0 ; tell printer latest fw version
G90 ; use absolute coordinates
M83 ; extruder relative mode
M104 S215 ; set extruder temp
M140 S60 ; set bed temp
M190 S60 ; wait for bed temp
M109 S215 ; wait for extruder temp
G28 W ; home all without mesh bed level
G80 ; mesh bed leveling
G1 Y-3.0 F1000.0 ; go outside print area
G92 E0.0
G1 X60.0 E9.0 F1000.0 ; intro line
G1 X100.0 E12.5 F1000.0 ; intro line
G92 E0.0
M221 S95

; Don't change E values below. Excessive value can damage the printer.
M907 E430 ; set extruder motor current
G21 ; set units to millimeters
G90 ; use absolute coordinates
M83 ; use relative distances for extrusion
M900 K0.05 ; Filament gcode LA 1.5
M900 K30 ; Filament gcode LA 1.0
M107
;LAYER_CHANGE
;Z:0.2
;HEIGHT:0.2
;BEFORE_LAYER_CHANGE
G92 E0.0
;0.2


G1 E-.8 F2100
G1 Z.4 F10800
;AFTER_LAYER_CHANGE
;0.2
G1 X115.667 Y75.475
G1 Z.2
G1 E.8 F2100
M204 S1000
;TYPE:Skirt/Brim
;WIDTH:0.42
G1 F1200
G1 X116.157 Y74.892 E.02388
G1 X116.617 Y74.526 E.01844
G1 X117.134 Y74.245 E.01844
G1 X118.099 Y73.986 E.03135
G1 X134.687 Y73.971 E.52011
G1 X135.269 Y74.058 E.01844
G1 X135.827 Y74.245 E.01844
G1 X136.344 Y74.526 E.01844
G1 X136.804 Y74.892 E.01844
G1 X137.193 Y75.333 E.01844
G1 X137.501 Y75.834 E.01844
G1 X137.82 Y76.839 E.03304
G1 X143.99 Y121.336 E1.40854
G1 X144.039 Y122.203 E.0272
G1 X143.863 Y123.288 E.03449
G1 X143.607 Y123.964 E.02267
G1 X136.262 Y139.152 E.52895
G1 X135.703 Y139.94 E.03031
G1 X135.12 Y140.43 E.02388
G1 X134.214 Y140.853 E.03135
G1 X133.256 Y140.994 E.03034
G1 X117.256 Y140.994 E.50167
G1 X116.299 Y140.853 E.03034
G1 X115.393 Y140.43 E.03135
G1 X114.933 Y140.064 E.01844
G1 X114.543 Y139.623 E.01844
G1 X114.162 Y138.963 E.02388
G1 X108.036 Y123.565 E.5196
G1 X107.823 Y122.751 E.0264
G1 X107.768 Y122.203 E.01728
G1 X107.827 Y121.277 E.02908
G1 X115.244 Y76.382 E1.42674
G1 X115.642 Y75.53 E.02947
; printing object joy_c_remote_adapter_cap v22 id:3 copy 0
;WIPE_START
G1 F8640
G1 X116.157 Y74.892 E-.18929
G1 X116.617 Y74.526 E-.13581
G1 X117.134 Y74.245 E-.13582
G1 X118.099 Y73.986 E-.23087
G1 X118.395 Y73.986 E-.06821
;WIPE_END
G1 E-.04 F2100
G1 Z.6 F10800
G1 X130.896 Y137.237
G1 Z.2
G1 E.8 F2100
;TYPE:Perimeter
;WIDTH:0.419999
G1 F1200
G1 X119.614 Y137.244 E.35374
G1 X119.744 Y136.953 E.01
G1 X119.825 Y136.569 E.01231
G1 X119.825 Y136.165 E.01268
G1 X119.744 Y135.78 E.01231
G1 X119.617 Y135.497 E.00974
M73 Q1 S29
G1 X130.897 Y135.493 E.35368
G1 X130.769 Y135.781 E.00986
M73 P1 R29
G1 X130.687 Y136.165 E.01231
G1 X130.687 Y136.569 E.01268
G1 X130.769 Y136.953 E.01231
G1 X130.871 Y137.183 E.00788
G1 X131.704 Y137.614 F10800
G1 F1200
G1 X118.799 Y137.622 E.40462
G1 X119.093 Y137.362 E.0123
G1 X119.234 Y137.169 E.0075
G1 X119.399 Y136.799 E.01268
G1 X119.448 Y136.37 E.01355
G1 X119.399 Y135.934 E.01375
G1 X119.235 Y135.565 E.01268
G1 X119.093 Y135.372 E.0075
G1 X118.809 Y135.12 E.01191
G1 X131.708 Y135.116 E.40446
G1 X131.42 Y135.372 E.0121
G1 X131.278 Y135.565 E.0075
G1 X131.113 Y135.934 E.01268
G1 X131.064 Y136.366 E.01362
G1 X131.113 Y136.799 E.01368
G1 X131.278 Y137.169 E.01268
G1 X131.42 Y137.362 E.0075
G1 X131.659 Y137.574 E.01005
;WIPE_START
G1 F8640
G1 X128.368 Y137.586 E-.76
;WIPE_END
G1 E-.04 F2100
G1 Z.6 F10800
G1 X133.572 Y137.83
G1 Z.2
G1 E.8 F2100
;TYPE:External perimeter
G1 F1200
G1 X133.385 Y137.958 E.00711
G1 X133.213 Y137.99 E.00549
;WIDTH:0.44659
G1 X132.848 Y137.977 E.01226
;WIDTH:0.47318
G1 X132.483 Y137.964 E.01307
G1 X132.221 Y137.978 E.0094
;WIDTH:0.44659
G1 X131.958 Y137.991 E.00882
;WIDTH:0.419999
G1 X118.556 Y137.999 E.42021
;WIDTH:0.450738
G1 X118.252 Y137.984 E.01033
;WIDTH:0.481477
G1 X117.948 Y137.969 E.01111
G1 X117.64 Y137.984 E.01121
;WIDTH:0.450738
G1 X117.333 Y138 E.01043
;WIDTH:0.419999
G1 X117.065 Y137.941 E.00862
G1 X116.876 Y137.724 E.00901
;WIDTH:0.434659
G1 X116.675 Y136.781 E.03141
;WIDTH:0.417265
G1 X116.658 Y136.527 E.00792
G1 X116.675 Y135.952 E.0179
;WIDTH:0.419999
G1 X116.833 Y135.128 E.02631
G1 X116.941 Y134.904 E.00781
G1 X117.128 Y134.776 E.00711
G1 X117.3 Y134.743 E.00549
;WIDTH:0.446528
G1 X117.665 Y134.757 E.01226
;WIDTH:0.473056
G1 X118.03 Y134.77 E.01306
G1 X118.292 Y134.756 E.0094
;WIDTH:0.446528
G1 X118.555 Y134.743 E.00882
;WIDTH:0.419999
G1 X131.726 Y134.739 E.41299
;WIDTH:0.449307
G1 X132.067 Y134.753 E.01151
;WIDTH:0.478615
G1 X132.407 Y134.768 E.01234
G1 X132.683 Y134.753 E.01001
;WIDTH:0.449619
G1 X132.959 Y134.739 E.00934
;WIDTH:0.420623
G1 X133.377 Y134.758 E.01315
;WIDTH:0.419999
G1 X133.601 Y134.944 E.00914
;WIDTH:0.433222
G1 X133.841 Y135.99 E.03482
;WIDTH:0.41672
G1 X133.855 Y136.206 E.00673
;WIDTH:0.417264
G1 X133.837 Y136.781 E.0179
;WIDTH:0.419999
G1 X133.68 Y137.605 E.02631
G1 X133.598 Y137.776 E.00593
G1 X133.35 Y137.783 F10800
G1 X133.427 Y136.831
;WIDTH:0.452992
G1 F1200
G1 X133.35 Y137.072 E.00862
G1 X132.992 Y137.388 E.0163
;WIDTH:0.44659
G1 X132.737 Y137.461 E.00888
;WIDTH:0.47318
G1 X132.483 Y137.534 E.00947
;WIDTH:0.481994
G1 X132.421 Y137.529 E.00225
G1 X132.197 Y137.438 E.00885
;WIDTH:0.450997
G1 X131.972 Y137.347 E.00822
;WIDTH:0.419999
G1 X131.623 Y137.015 E.01512
G1 X131.441 Y136.569 E.0151
G1 X131.458 Y136.088 E.0151
G1 X131.67 Y135.654 E.01513
G1 X132.044 Y135.346 E.0152
;WIDTH:0.449627
G1 X132.284 Y135.273 E.00847
;WIDTH:0.479254
G1 X132.524 Y135.201 E.00909
G1 X132.767 Y135.281 E.0093
;WIDTH:0.449627
G1 X133.01 Y135.361 E.00867
;WIDTH:0.449283
G1 X133.348 Y135.662 E.01529
G1 X133.503 Y136.143 E.01707
;WIDTH:0.400327
G1 X133.503 Y136.59 E.01328
;WIDTH:0.426659
G1 X133.445 Y136.774 E.00615
;WIPE_START
G1 F8640
G1 X133.35 Y137.072 E-.0722
G1 X132.992 Y137.388 E-.11037
G1 X132.737 Y137.461 E-.06111
G1 X132.483 Y137.534 E-.06111
G1 X132.421 Y137.529 E-.01426
G1 X132.197 Y137.438 E-.05596
G1 X131.972 Y137.347 E-.05596
G1 X131.623 Y137.015 E-.11133
G1 X131.441 Y136.569 E-.11119
G1 X131.457 Y136.108 E-.10653
;WIPE_END
G1 E-.04 F2100
G1 Z.6 F10800
G1 X117.086 Y135.903
G1 Z.2
G1 E.8 F2100
;WIDTH:0.452993
G1 F1200
G1 X117.163 Y135.662 E.00862
G1 X117.521 Y135.345 E.0163
;WIDTH:0.446528
G1 X117.775 Y135.273 E.00888
;WIDTH:0.473056
G1 X118.03 Y135.2 E.00947
G1 X118.249 Y135.273 E.00827
;WIDTH:0.446528
G1 X118.468 Y135.346 E.00776
;WIDTH:0.419999
G1 X118.843 Y135.654 E.0152
G1 X119.055 Y136.088 E.01513
G1 X119.071 Y136.569 E.0151
G1 X118.89 Y137.015 E.0151
G1 X118.541 Y137.347 E.01512
;WIDTH:0.450412
G1 X118.304 Y137.441 E.00861
;WIDTH:0.480824
G1 X118.068 Y137.534 E.00925
G1 X117.838 Y137.482 E.0086
;WIDTH:0.450735
G1 X117.607 Y137.43 E.00801
;WIDTH:0.434659
G1 X117.228 Y137.149 E.01539
;WIDTH:0.452993
G1 X117.163 Y137.072 E.00344
G1 X117.086 Y136.831 E.00862
;WIDTH:0.426661
G1 X117.009 Y136.59 E.00806
;WIDTH:0.400328
G1 X117.009 Y136.143 E.01328
;WIDTH:0.42666
G1 X117.068 Y135.96 E.00615
;WIPE_START
G1 F8640
G1 X117.163 Y135.662 E-.0722
G1 X117.521 Y135.345 E-.11037
G1 X117.775 Y135.273 E-.06111
G1 X118.03 Y135.2 E-.06111
G1 X118.249 Y135.273 E-.05338
G1 X118.468 Y135.346 E-.05338
G1 X118.843 Y135.654 E-.11193
G1 X119.055 Y136.088 E-.11145
G1 X119.071 Y136.569 E-.11119
G1 X119.049 Y136.625 E-.01388
;WIPE_END
G1 E-.04 F2100
G1 Z.6 F10800
G1 X129.922 Y135.607
G1 Z.2
G1 E.8 F2100
;TYPE:Solid infill
;WIDTH:0.427026
G1 F1200
G1 X130.416 Y136.1 E.0223
G1 X130.404 Y136.579 E.0153
G1 X130.42 Y136.647 E.00222
G1 X129.549 Y135.776 E.03933
G1 X129.006 Y135.777 E.01734
G1 X130.184 Y136.955 E.05323
G1 X129.641 Y136.955 E.01734
G1 X128.463 Y135.777 E.05324
G1 X127.92 Y135.777 E.01734
G1 X129.098 Y136.956 E.05324
G1 X128.556 Y136.956 E.01734
G1 X127.377 Y135.777 E.05325
G1 X126.834 Y135.777 E.01734
G1 X128.013 Y136.956 E.05326
G1 X127.47 Y136.957 E.01734
G1 X126.291 Y135.777 E.05326
G1 X125.747 Y135.778 E.01734
G1 X126.927 Y136.957 E.05327
G1 X126.384 Y136.957 E.01734
G1 X125.204 Y135.778 E.05328
G1 X124.661 Y135.778 E.01734
G1 X125.841 Y136.958 E.05328
G1 X125.298 Y136.958 E.01734
G1 X124.118 Y135.778 E.05329
G1 X123.575 Y135.778 E.01734
G1 X124.755 Y136.958 E.0533
G1 X124.212 Y136.959 E.01734
G1 X123.032 Y135.779 E.05331
G1 X122.489 Y135.779 E.01734
G1 X123.67 Y136.959 E.05331
G1 X123.127 Y136.959 E.01734
G1 X121.946 Y135.779 E.05332
G1 X121.403 Y135.779 E.01734
G1 X122.584 Y136.96 E.05333
G1 X122.041 Y136.96 E.01734
G1 X120.86 Y135.779 E.05333
G1 X120.317 Y135.779 E.01734
G1 X121.498 Y136.96 E.05334
G1 X120.955 Y136.961 E.01734
G1 X120.097 Y136.102 E.03878
G1 X120.108 Y136.579 E.01525
G1 X120.094 Y136.643 E.00207
G1 X120.582 Y137.131 E.02204
; stop printing object joy_c_remote_adapter_cap v22 id:3 copy 0
; printing object joy_c_remote_adapter v22 id:0 copy 0
;WIPE_START
G1 F8640
G1 X120.094 Y136.643 E-.15932
G1 X120.108 Y136.579 E-.01495
G1 X120.097 Y136.102 E-.11026
G1 X120.955 Y136.961 E-.28035
G1 X121.498 Y136.96 E-.12535
G1 X121.284 Y136.747 E-.06976
;WIPE_END
G1 E-.04 F2100
G1 Z.6 F10800
G1 X112.955 Y119.651
G1 Z.2
G1 E.8 F2100
;TYPE:Perimeter
;WIDTH:0.419999
G1 F1200
G1 X112.648 Y119.558 E.01007
G1 X112.156 Y119.537 E.01543
G1 X112.394 Y118.406 E.03625
G1 X112.628 Y117.884 E.01792
G1 X112.922 Y117.493 E.01533
G1 X113.265 Y117.194 E.01428
G1 X113.686 Y116.957 E.01516
M73 P1 R28
G1 X114.087 Y116.83 E.01318
G1 X114.608 Y116.771 E.01645
G1 X137.374 Y116.786 E.7138
G1 X138.005 Y116.916 E.0202
G1 X138.475 Y117.149 E.01645
G1 X138.881 Y117.482 E.01645
G1 X139.199 Y117.908 E.01668
G1 X139.424 Y118.424 E.01765
G1 X139.652 Y119.538 E.03567
G1 X139.235 Y119.554 E.01308
G1 X138.853 Y119.653 E.01237
G1 X138.741 Y119.329 E.01074
G1 X138.594 Y119.06 E.00962
G1 X138.249 Y118.616 E.01761
G1 X137.843 Y118.275 E.01664
G1 X137.487 Y118.074 E.0128
G1 X136.776 Y117.835 E.02351
G1 X136.31 Y117.791 E.01466
G1 X115.316 Y117.801 E.65826
G1 X114.785 Y117.91 E.017
G1 X114.291 Y118.078 E.01636
G1 X113.86 Y118.34 E.0158
G1 X113.479 Y118.69 E.01624
G1 X113.182 Y119.103 E.01596
G1 X112.978 Y119.595 E.01669
G1 X113.258 Y120.241 F10800
G1 F1200
G1 X113.09 Y120.119 E.00653
G1 X112.592 Y119.933 E.01665
G1 X112.096 Y119.918 E.01557
G1 X111.611 Y120.074 E.01595
G1 X111.766 Y119.562 E.01679
G1 X112.001 Y118.412 E.03681
G1 X112.16 Y117.959 E.01505
G1 X112.398 Y117.537 E.0152
G1 X112.642 Y117.241 E.01201
G1 X113.036 Y116.894 E.01647
G1 X113.517 Y116.62 E.01735
G1 X114.072 Y116.442 E.01827
G1 X114.591 Y116.394 E.01634
G1 X137.358 Y116.402 E.71384
G1 X137.874 Y116.485 E.01639
G1 X138.341 Y116.642 E.01546
G1 X138.845 Y116.936 E.01829
G1 X139.262 Y117.343 E.01825
G1 X139.581 Y117.83 E.01828
G1 X139.789 Y118.327 E.01689
G1 X140.041 Y119.562 E.0395
G1 X140.195 Y120.072 E.0167
G1 X139.936 Y119.968 E.00876
G1 X139.522 Y119.905 E.01314
G1 X138.909 Y120.028 E.01959
G1 X138.549 Y120.241 E.01313
G1 X138.537 Y119.965 E.00867
G1 X138.384 Y119.453 E.01676
G1 X138.17 Y119.129 E.01217
G1 X137.838 Y118.738 E.01608
G1 X137.408 Y118.447 E.01629
G1 X136.88 Y118.245 E.01773
G1 X136.31 Y118.168 E.01801
G1 X115.316 Y118.178 E.65825
G1 X115.17 Y118.197 E.00462
G1 X114.627 Y118.343 E.01764
G1 X114.221 Y118.555 E.01436
G1 X113.79 Y118.912 E.01756
G1 X113.492 Y119.317 E.01577
G1 X113.301 Y119.804 E.0164
G1 X113.264 Y120.182 E.01189
;WIPE_START
G1 F8640
G1 X113.09 Y120.119 E-.04278
G1 X112.592 Y119.933 E-.12264
G1 X112.096 Y119.918 E-.11467
G1 X111.611 Y120.074 E-.11749
G1 X111.766 Y119.562 E-.12363
G1 X111.973 Y118.549 E-.23879
;WIPE_END
G1 E-.04 F2100
G1 Z.6 F10800
G1 X113.751 Y121.633
G1 Z.2
G1 E.8 F2100
;TYPE:External perimeter
;WIDTH:0.414995
G1 F1200
G1 X113.669 Y121.336 E.00952
;WIDTH:0.419999
G1 X113.188 Y120.671 E.02575
G1 X112.868 Y120.423 E.01269
G1 X112.481 Y120.294 E.01279
G1 X112.124 Y120.296 E.0112
G1 X111.642 Y120.477 E.01615
G1 X111.16 Y120.886 E.01983
G1 X110.889 Y121.255 E.01435
;WIDTH:0.418741
G1 X110.915 Y121.136 E.00379
;WIDTH:0.419999
G1 X111.039 Y120.449 E.0219
G1 X111.245 Y119.984 E.01596
G1 X111.397 Y119.486 E.0163
G1 X111.652 Y118.235 E.04004
G1 X111.851 Y117.709 E.01764
G1 X112.143 Y117.231 E.01756
G1 X112.518 Y116.815 E.01756
G1 X112.964 Y116.476 E.01756
G1 X113.464 Y116.224 E.01756
G1 X114.002 Y116.07 E.01755
G1 X114.574 Y116.017 E.01799
G1 X137.388 Y116.025 E.71533
G1 X137.934 Y116.112 E.01733
M73 P2 R28
M73 Q2 S29
G1 X138.478 Y116.291 E.01797
G1 X138.964 Y116.566 E.01749
G1 X139.392 Y116.927 E.01755
G1 X139.746 Y117.362 E.01759
G1 X139.92 Y117.665 E.01096
G1 X140.154 Y118.231 E.01921
G1 X140.414 Y119.501 E.04064
G1 X140.563 Y119.983 E.01584
G1 X140.768 Y120.449 E.01596
G1 X140.909 Y121.233 E.02498
G1 X140.648 Y120.886 E.01361
G1 X140.166 Y120.477 E.01983
G1 X139.796 Y120.318 E.01263
G1 X139.485 Y120.28 E.00982
G1 X139.014 Y120.39 E.01518
G1 X138.628 Y120.659 E.01474
G1 X138.239 Y121.151 E.01966
G1 X138.076 Y121.498 E.01201
G1 X138.084 Y120.99 E.01592
G1 X138.164 Y120.458 E.01687
G1 X138.16 Y119.982 E.01493
G1 X137.999 Y119.523 E.01525
G1 X137.654 Y119.079 E.01761
G1 X137.27 Y118.799 E.0149
G1 X136.8 Y118.618 E.0158
G1 X136.31 Y118.545 E.01553
G1 X115.316 Y118.555 E.65824
G1 X114.724 Y118.707 E.01917
G1 X114.41 Y118.881 E.01127
G1 X114.044 Y119.19 E.01503
G1 X113.802 Y119.531 E.0131
G1 X113.647 Y119.982 E.01493
G1 X113.649 Y120.493 E.01603
G1 X113.723 Y121 E.01607
G1 X113.749 Y121.573 E.01798
G1 X113.687 Y121.332 F10800
;WIPE_START
G1 F8640
G1 X113.669 Y121.336 E-.05766
G1 X113.188 Y120.671 E-.1896
G1 X112.868 Y120.423 E-.09344
G1 X112.481 Y120.294 E-.09417
G1 X112.124 Y120.296 E-.08249
G1 X111.642 Y120.477 E-.11895
G1 X111.234 Y120.824 E-.12369
;WIPE_END
G1 E-.04 F2100
G1 Z.6 F10800
G1 X141.033 Y121.64
G1 Z.2
G1 E.8 F2100
;WIDTH:0.38292
G1 F1200
G1 X141.068 Y122.001 E.01028
G1 X141.046 Y122.343 E.00968
G1 X140.864 Y122.803 E.01398
G1 X140.657 Y123.073 E.00963
G1 X140.267 Y123.378 E.014
G1 X139.955 Y123.502 E.00949
G1 X139.405 Y123.546 E.01559
G1 X138.968 Y123.433 E.01275
G1 X138.562 Y123.18 E.01354
G1 X138.308 Y122.912 E.01044
G1 X138.074 Y122.397 E.01598
G1 X138.039 Y121.804 E.01679
;WIPE_START
G1 F8640
G1 X138.037 Y121.842 E-.00874
G1 X138.074 Y122.397 E-.12842
G1 X138.308 Y122.912 E-.13055
G1 X138.562 Y123.18 E-.08529
G1 X138.968 Y123.433 E-.1106
G1 X139.405 Y123.546 E-.10414
G1 X139.955 Y123.502 E-.12735
G1 X140.216 Y123.398 E-.06493
;WIPE_END
G1 E-.04 F2100
G1 Z.6 F10800
G1 X113.755 Y121.667
G1 Z.2
G1 E.8 F2100
G1 F1200
G1 X113.766 Y122.215 E.01551
G1 X113.598 Y122.75 E.01585
G1 X113.36 Y123.077 E.01143
G1 X112.938 Y123.393 E.01491
G1 X112.586 Y123.518 E.01057
G1 X112.209 Y123.553 E.01069
G1 X111.84 Y123.495 E.01056
G1 X111.368 Y123.27 E.01479
G1 X111.018 Y122.92 E.01398
G1 X110.852 Y122.629 E.00948
G1 X110.752 Y122.301 E.00968
G1 X110.753 Y121.756 E.01542
G1 X110.807 Y121.505 E.00724
;WIPE_START
G1 F8640
G1 X110.753 Y121.756 E-.05913
G1 X110.752 Y122.301 E-.12598
